public/images/home/logos/yld-logo-svg.svg

<?xml version="1.0" encoding="UTF-8" standalone="no"?>
<svg width="46px" height="32px" viewBox="0 0 46 32" version="1.1" xmlns="http://www.w3.org/2000/svg" xmlns:xlink="http://www.w3.org/1999/xlink" xmlns:sketch="http://www.bohemiancoding.com/sketch/ns">
    <title>YLD Logo</title>
    <description>Logo for Yield Limited</description>
    <defs></defs>
    <g id="Page-1" stroke="none" stroke-width="1" fill="none" fill-rule="evenodd" sketch:type="MSPage">
        <g id="yld-logo-svg" sketch:type="MSLayerGroup" fill="#FFFFFF">
            <g id="Page-1" sketch:type="MSShapeGroup">
                <path d="M12.0161082,9.3845604 C11.4261664,9.1823647 10.9005458,8.5053372 10.8486921,7.8802131 L10.2879357,1.1367447 C10.2357986,0.5116207 9.6832595,0 9.059882,0 L5.9118255,0 L3.6449982,0 L1.0401302,0 C0.4167527,0 -0.0493637,0.5113355 0.0041901,1.1364595 L1.2846642,16.0538809 C1.3379347,16.6787198 1.8723392,17.3315067 2.4713483,17.5048987 L16.5075432,21.5562272 C17.1065523,21.7290489 17.6018541,22.3838321 17.6080878,23.0115228 L17.6729758,29.6945321 C17.6789262,30.3219376 18.1821619,30.9459209 18.790805,31.0810983 L21.8045519,31.7507111 C22.4131951,31.8861736 22.9113304,31.9979659 22.9113304,31.9999622 C22.9113304,32.0019585 23.4151327,31.9246735 24.0314264,31.8282812 L27.3897311,31.3041124 C28.0060248,31.2077201 28.5149275,30.6159627 28.520878,29.9885572 L28.5894495,22.9547711 C28.5953999,22.3273656 29.090985,21.6725824 29.6899941,21.4994755 L43.528975,17.5048987 C44.1279841,17.3317919 44.6623887,16.679005 44.7156591,16.0538809 L45.9958498,1.1364595 C46.0491203,0.5113355 45.5832873,0 44.9599097,0 L42.3550418,0 L40.0882145,0 L36.9404414,0 C36.3170638,0 35.7645247,0.5116207 35.7123877,1.1367447 L35.1516312,7.8802131 C35.0994942,8.5053372 34.5747237,9.1835055 33.9850652,9.3871271 L24.1184159,12.7947945 C23.5287575,12.9984161 22.5636557,12.9995569 21.9737139,12.7973612 L12.0161082,9.3845604 L12.0161082,9.3845604 Z" id="Path"></path>
            </g>
        </g>
    </g>
</svg>

<svg width="46" height="32" viewBox="0 0 46 32" xmlns="http://www.w3.org/2000/svg"><title>YLD Logo</title><path d="M12.016 9.385c-.59-.203-1.115-.88-1.167-1.505l-.562-6.743C10.236.512 9.683 0 9.06 0H1.04C.417 0-.05.51.004 1.136l1.28 14.918c.054.625.588 1.278 1.187 1.45l14.038 4.052c.6.173 1.094.828 1.1 1.456l.065 6.683c.006.627.51 1.25 1.118 1.386l3.015.67c.608.136 1.106.248 1.106.25 0 .002.505-.075 1.12-.172l3.36-.524c.616-.096 1.125-.688 1.13-1.315l.07-7.035c.005-.628.5-1.282 1.1-1.456l13.84-3.995c.598-.173 1.132-.826 1.186-1.45l1.28-14.92C46.05.512 45.583 0 44.96 0h-8.02c-.623 0-1.175.512-1.228 1.137l-.56 6.743c-.053.625-.577 1.304-1.167 1.507l-9.867 3.408c-.59.203-1.554.205-2.144.002l-9.958-3.412z" fill="#fff"/></svg>
